Lila_HD/apps/scalable/zotero.svg

<?xml version="1.0" encoding="UTF-8" standalone="no"?>
<!-- Created with Inkscape (http://www.inkscape.org/) -->

<svg
   xmlns:dc="http://purl.org/dc/elements/1.1/"
   xmlns:cc="http://creativecommons.org/ns#"
   xmlns:rdf="http://www.w3.org/1999/02/22-rdf-syntax-ns#"
   xmlns:svg="http://www.w3.org/2000/svg"
   xmlns="http://www.w3.org/2000/svg"
   xmlns:xlink="http://www.w3.org/1999/xlink"
   xmlns:sodipodi="http://sodipodi.sourceforge.net/DTD/sodipodi-0.dtd"
   xmlns:inkscape="http://www.inkscape.org/namespaces/inkscape"
   width="96"
   height="96"
   id="svg13094"
   version="1.1"
   inkscape:version="0.92.2 5c3e80d, 2017-08-06"
   sodipodi:docname="zotero.svg">
  <sodipodi:namedview
     id="base"
     pagecolor="#ffffff"
     bordercolor="#666666"
     borderopacity="1.0"
     inkscape:pageopacity="0"
     inkscape:pageshadow="2"
     inkscape:zoom="3.1015626"
     inkscape:cx="24.820454"
     inkscape:cy="29.949587"
     inkscape:document-units="px"
     inkscape:current-layer="g1008"
     showgrid="false"
     inkscape:snap-bbox="true"
     inkscape:bbox-paths="true"
     inkscape:bbox-nodes="true"
     inkscape:snap-bbox-edge-midpoints="true"
     inkscape:snap-bbox-midpoints="true"
     inkscape:object-paths="true"
     inkscape:snap-intersection-paths="true"
     inkscape:object-nodes="true"
     inkscape:snap-smooth-nodes="true"
     inkscape:snap-midpoints="true"
     inkscape:snap-object-midpoints="true"
     inkscape:snap-center="true"
     showguides="false"
     inkscape:guide-bbox="true"
     inkscape:window-width="1280"
     inkscape:window-height="972"
     inkscape:window-x="0"
     inkscape:window-y="23"
     inkscape:window-maximized="1"
     inkscape:snap-global="false"
     fit-margin-top="0"
     fit-margin-left="0"
     fit-margin-right="0"
     fit-margin-bottom="0"
     showborder="true"
     inkscape:showpageshadow="false"
     inkscape:snap-page="true">
    <inkscape:grid
       type="xygrid"
       id="grid3075"
       empspacing="5"
       visible="true"
       enabled="true"
       snapvisiblegridlinesonly="true"
       originx="1.6362304e-08"
       originy="18"
       spacingx="1"
       spacingy="1" />
    <sodipodi:guide
       orientation="0,1"
       position="-11,30"
       id="guide9148"
       inkscape:locked="false" />
    <sodipodi:guide
       orientation="1,0"
       position="32,70"
       id="guide9150"
       inkscape:locked="false" />
  </sodipodi:namedview>
  <defs
     id="defs13096">
    <linearGradient
       id="linearGradient3094">
      <stop
         offset="0"
         style="stop-color:#b7c1d2;stop-opacity:1;"
         id="stop3096" />
      <stop
         offset="1"
         style="stop-color:#8c98a8;stop-opacity:1;"
         id="stop3104" />
    </linearGradient>
    <linearGradient
       id="linearGradient6139-0">
      <stop
         id="stop6141-2"
         offset="0"
         style="stop-color:#b2babc;stop-opacity:1" />
      <stop
         style="stop-color:#ffffff;stop-opacity:1;"
         offset="0.25"
         id="stop6151-0" />
      <stop
         style="stop-color:#96a1a4;stop-opacity:1"
         offset="0.5"
         id="stop6147-1" />
      <stop
         id="stop6149-4"
         offset="0.75"
         style="stop-color:#fbf9f9;stop-opacity:1;" />
      <stop
         id="stop6143-4"
         offset="1"
         style="stop-color:#b2b9bc;stop-opacity:1" />
    </linearGradient>
    <linearGradient
       id="linearGradient3832-0-6-1-1">
      <stop
         style="stop-color:#000000;stop-opacity:1;"
         offset="0"
         id="stop3834-6-3-7-1" />
      <stop
         id="stop3872-2-4"
         offset="0.1"
         style="stop-color:#000000;stop-opacity:0.58823532;" />
      <stop
         style="stop-color:#000000;stop-opacity:0.58823532;"
         offset="0.89999998"
         id="stop3844-6-2-7-6" />
      <stop
         style="stop-color:#000000;stop-opacity:1;"
         offset="1"
         id="stop3836-5-0-2-9" />
    </linearGradient>
    <linearGradient
       id="linearGradient3737">
      <stop
         offset="0"
         style="stop-color:#ffffff;stop-opacity:1"
         id="stop3739" />
      <stop
         offset="1"
         style="stop-color:#ffffff;stop-opacity:0"
         id="stop3741" />
    </linearGradient>
    <clipPath
       id="clipPath4156-4-1"
       clipPathUnits="userSpaceOnUse">
      <path
         inkscape:connector-curvature="0"
         id="path4158-0-8"
         d="m 27.046336,-55.695463 -14.21366,13.321486 h 0.06127 l 15.653407,21.770763 10.231384,-10.546177 C 38.561832,-32.30156 27.468089,-54.819245 27.046336,-55.695463 Z M 9.6468554,-39.382809 -5.2407289,-25.32124 15.987863,-7.8059573 26.372412,-18.382966 Z m 31.4906096,12.951445 -9.741259,9.713584 8.944804,12.4580526 7.780753,-7.5550056 z m -49.8397109,4.378822 -13.7541661,12.9822847 26.2830181,13.84571 0.06127,-0.0617 -0.122531,-0.0617 L 13.598503,-5.4007374 -8.7022409,-22.052595 Z m 38.0154159,7.400825 -9.802525,9.7752596 11.579232,9.5594001 7.62759,-7.40083 -8.669108,-11.0087257 z m 20.187073,5.6739697 -7.382526,7.2158 6.187844,8.54179 5.820249,-6.13651996 z m -32.195166,6.32154 -9.5574606,9.49772 13.6622686,7.1849703 7.933918,-7.6783603 z m 23.311629,2.37443004 -7.10683,6.93826996 8.362778,6.9074403 5.360756,-5.6739699 -0.06127,-0.0925 -0.0919,0.12335 -6.463539,-8.20258036 z m -8.730374,8.54178036 -7.505057,7.3391599 10.353916,5.45811 c 1.397496,-1.32103 5.67514,-6.12292 5.850882,-6.32154 z"
         style="opacity:0.6;fill:#ffffff;fill-opacity:1;stroke:none" />
    </clipPath>
    <linearGradient
       id="ButtonShadow-16"
       gradientTransform="scale(1.0058652,0.994169)"
       x1="45.447727"
       y1="92.539597"
       x2="45.447727"
       y2="7.0165396"
       gradientUnits="userSpaceOnUse">
      <stop
         style="stop-color:#000000;stop-opacity:1;"
         offset="0"
         id="stop3750-6" />
      <stop
         style="stop-color:#000000;stop-opacity:0.58823532;"
         offset="1"
         id="stop3752-4" />
    </linearGradient>
    <clipPath
       clipPathUnits="userSpaceOnUse"
       id="clipPath4355-7">
      <rect
         style="fill:#ffffff;fill-opacity:1;fill-rule:nonzero;stroke:none"
         id="rect4357-5"
         width="84"
         height="80"
         x="6"
         y="6"
         rx="6"
         ry="6" />
    </clipPath>
    <clipPath
       clipPathUnits="userSpaceOnUse"
       id="clipPath4355-9">
      <rect
         style="fill:#ffffff;fill-opacity:1;fill-rule:nonzero;stroke:none"
         id="rect4357-1"
         width="84"
         height="80"
         x="6"
         y="6"
         rx="6"
         ry="6" />
    </clipPath>
    <clipPath
       clipPathUnits="userSpaceOnUse"
       id="clipPath4355-1">
      <rect
         style="fill:#ffffff;fill-opacity:1;fill-rule:nonzero;stroke:none"
         id="rect4357-9"
         width="84"
         height="80"
         x="6"
         y="6"
         rx="6"
         ry="6" />
    </clipPath>
    <clipPath
       clipPathUnits="userSpaceOnUse"
       id="clipPath3943-52-0">
      <path
         id="path3945-4-1"
         d="m 69.78125,20.84375 -5,3.4375 c 5.586891,5.537137 9,13.327613 9,21.8125 0,8.434478 -3.37723,16.095981 -8.90625,21.625 l 5,3.4375 C 76.078226,64.5762 80,55.843726 80,46.09375 c 2e-6,-9.796556 -3.962955,-18.660417 -10.21875,-25.25 z M 40,24.0625 28.90625,36.21875 H 21.5 c -0.823281,0 -1.5,0.676717 -1.5,1.5 v 1 14.84375 1 c 0,0.823281 0.684121,1.610161 1.5,1.5 h 7.40625 L 40,68 V 66 26.0625 Z m 20.59375,3.28125 -5,3.4375 L 55.5,30.875 c 3.93815,3.890071 6.40625,9.25018 6.40625,15.21875 0,5.920869 -2.42961,11.148358 -6.3125,15.03125 l 0.09375,0.09375 5.09375,3.4375 c 4.475428,-4.908367 7.25,-11.402005 7.25,-18.5625 0,-7.230696 -2.87904,-13.83107 -7.4375,-18.75 z m -9.25,6.5 -5.21875,3.625 c 2.222384,2.217802 3.71875,5.239596 3.71875,8.625 0,3.336509 -1.458847,6.227712 -3.625,8.4375 l 5.21875,3.625 c 2.822412,-3.236947 4.53125,-7.43414 4.53125,-12.0625 0,-4.672601 -1.754155,-9.001351 -4.625,-12.25 z"
         style="color:#000000;display:inline;overflow:visible;visibility:visible;opacity:0.8;fill:#ff00ff;fill-opacity:1;fill-rule:nonzero;stroke:none;stroke-width:1;marker:none;enable-background:accumulate"
         inkscape:connector-curvature="0" />
    </clipPath>
    <linearGradient
       inkscape:collect="always"
       xlink:href="#linearGradient6139-0"
       id="linearGradient4071-6"
       gradientUnits="userSpaceOnUse"
       gradientTransform="matrix(1.1071428,0,0,1.1071426,-5.142859,-4.035687)"
       x1="6"
       y1="47.000011"
       x2="90"
       y2="47.000011" />
    <linearGradient
       gradientTransform="translate(-2.95e-6,2.6e-5)"
       inkscape:collect="always"
       xlink:href="#linearGradient3832-0-6-1-1"
       id="linearGradient4129-2"
       x1="1.5"
       y1="88.171875"
       x2="94.5"
       y2="88.171875"
       gradientUnits="userSpaceOnUse" />
    <radialGradient
       inkscape:collect="always"
       xlink:href="#linearGradient3737"
       id="radialGradient7462-0"
       gradientUnits="userSpaceOnUse"
       gradientTransform="matrix(0.97513378,0,0,0.04919072,33.898693,80.166722)"
       cx="13.948145"
       cy="44.892841"
       fx="13.948145"
       fy="44.892841"
       r="43.199203" />
    <radialGradient
       inkscape:collect="always"
       xlink:href="#linearGradient3737"
       id="radialGradient7464-6"
       gradientUnits="userSpaceOnUse"
       gradientTransform="matrix(0.88832663,0,0,0.04919072,31.544518,-90.168304)"
       cx="13.948145"
       cy="44.892841"
       fx="13.948145"
       fy="44.892841"
       r="43.199203" />
    <clipPath
       id="clipPath4156-4-1-0"
       clipPathUnits="userSpaceOnUse">
      <path
         inkscape:connector-curvature="0"
         id="path4158-0-8-6"
         d="m 27.046336,-55.695463 -14.21366,13.321486 h 0.06127 l 15.653407,21.770763 10.231384,-10.546177 C 38.561832,-32.30156 27.468089,-54.819245 27.046336,-55.695463 Z M 9.6468554,-39.382809 -5.2407289,-25.32124 15.987863,-7.8059573 26.372412,-18.382966 Z m 31.4906096,12.951445 -9.741259,9.713584 8.944804,12.4580526 7.780753,-7.5550056 z m -49.8397109,4.378822 -13.7541661,12.9822847 26.2830181,13.84571 0.06127,-0.0617 -0.122531,-0.0617 L 13.598503,-5.4007374 -8.7022409,-22.052595 Z m 38.0154159,7.400825 -9.802525,9.7752596 11.579232,9.5594001 7.62759,-7.40083 -8.669108,-11.0087257 z m 20.187073,5.6739697 -7.382526,7.2158 6.187844,8.54179 5.820249,-6.13651996 z m -32.195166,6.32154 -9.5574606,9.49772 13.6622686,7.1849703 7.933918,-7.6783603 z m 23.311629,2.37443004 -7.10683,6.93826996 8.362778,6.9074403 5.360756,-5.6739699 -0.06127,-0.0925 -0.0919,0.12335 -6.463539,-8.20258036 z m -8.730374,8.54178036 -7.505057,7.3391599 10.353916,5.45811 c 1.397496,-1.32103 5.67514,-6.12292 5.850882,-6.32154 z"
         style="opacity:0.6;fill:#ffffff;fill-opacity:1;stroke:none" />
    </clipPath>
    <clipPath
       clipPathUnits="userSpaceOnUse"
       id="clipPath4355-7-1">
      <rect
         style="fill:#ffffff;fill-opacity:1;fill-rule:nonzero;stroke:none"
         id="rect4357-5-8"
         width="84"
         height="80"
         x="6"
         y="6"
         rx="6"
         ry="6" />
    </clipPath>
    <clipPath
       clipPathUnits="userSpaceOnUse"
       id="clipPath4355-9-7">
      <rect
         style="fill:#ffffff;fill-opacity:1;fill-rule:nonzero;stroke:none"
         id="rect4357-1-9"
         width="84"
         height="80"
         x="6"
         y="6"
         rx="6"
         ry="6" />
    </clipPath>
    <clipPath
       clipPathUnits="userSpaceOnUse"
       id="clipPath4355-1-2">
      <rect
         style="fill:#ffffff;fill-opacity:1;fill-rule:nonzero;stroke:none"
         id="rect4357-9-0"
         width="84"
         height="80"
         x="6"
         y="6"
         rx="6"
         ry="6" />
    </clipPath>
    <clipPath
       clipPathUnits="userSpaceOnUse"
       id="clipPath3943-52-0-2">
      <path
         id="path3945-4-1-3"
         d="m 69.78125,20.84375 -5,3.4375 c 5.586891,5.537137 9,13.327613 9,21.8125 0,8.434478 -3.37723,16.095981 -8.90625,21.625 l 5,3.4375 C 76.078226,64.5762 80,55.843726 80,46.09375 c 2e-6,-9.796556 -3.962955,-18.660417 -10.21875,-25.25 z M 40,24.0625 28.90625,36.21875 H 21.5 c -0.823281,0 -1.5,0.676717 -1.5,1.5 v 1 14.84375 1 c 0,0.823281 0.684121,1.610161 1.5,1.5 h 7.40625 L 40,68 V 66 26.0625 Z m 20.59375,3.28125 -5,3.4375 L 55.5,30.875 c 3.93815,3.890071 6.40625,9.25018 6.40625,15.21875 0,5.920869 -2.42961,11.148358 -6.3125,15.03125 l 0.09375,0.09375 5.09375,3.4375 c 4.475428,-4.908367 7.25,-11.402005 7.25,-18.5625 0,-7.230696 -2.87904,-13.83107 -7.4375,-18.75 z m -9.25,6.5 -5.21875,3.625 c 2.222384,2.217802 3.71875,5.239596 3.71875,8.625 0,3.336509 -1.458847,6.227712 -3.625,8.4375 l 5.21875,3.625 c 2.822412,-3.236947 4.53125,-7.43414 4.53125,-12.0625 0,-4.672601 -1.754155,-9.001351 -4.625,-12.25 z"
         style="color:#000000;display:inline;overflow:visible;visibility:visible;opacity:0.8;fill:#ff00ff;fill-opacity:1;fill-rule:nonzero;stroke:none;stroke-width:1;marker:none;enable-background:accumulate"
         inkscape:connector-curvature="0" />
    </clipPath>
    <linearGradient
       inkscape:collect="always"
       xlink:href="#linearGradient3737"
       id="linearGradient1004"
       gradientUnits="userSpaceOnUse"
       x1="2.7713892"
       y1="-28.64156"
       x2="50.527882"
       y2="14.514202" />
  </defs>
  <metadata
     id="metadata13099">
    <rdf:RDF>
      <cc:Work
         rdf:about="">
        <dc:format>image/svg+xml</dc:format>
        <dc:type
           rdf:resource="http://purl.org/dc/dcmitype/StillImage" />
        <dc:title />
      </cc:Work>
    </rdf:RDF>
  </metadata>
  <path
     style="display:inline;opacity:0.15;fill:#000000;fill-opacity:1;fill-rule:nonzero;stroke:none"
     d="M 89.142854,2.6e-5 H 6.8571346 C 3.0582867,2.6e-5 -5.5e-7,3.058311 -5.5e-7,6.8571659 V 89.142884 c 0,3.798857 3.05828725,6.857142 6.85713515,6.857142 H 89.142854 c 3.798857,0 6.857147,-3.058285 6.857147,-6.857142 V 6.8571659 C 96.000001,3.058311 92.941711,2.6e-5 89.142854,2.6e-5 Z"
     id="path3288-2"
     inkscape:connector-curvature="0" />
  <path
     inkscape:connector-curvature="0"
     id="path4085-2"
     d="M 88.499998,0.750026 H 7.4999906 c -3.7394919,0 -6.74999295,3.010499 -6.74999295,6.7499969 V 88.500026 c 0,3.739501 3.01050105,6.75 6.74999295,6.75 H 88.499998 c 3.739503,0 6.750003,-3.010499 6.750003,-6.75 V 7.5000229 c 0,-3.7394979 -3.0105,-6.7499969 -6.750003,-6.7499969 z"
     style="display:inline;opacity:0.15;fill:#000000;fill-opacity:1;fill-rule:nonzero;stroke:none" />
  <path
     style="display:inline;fill:url(#linearGradient4071-6);fill-opacity:1;fill-rule:nonzero;stroke:none"
     d="M 87.857137,1.500026 H 8.1428547 c -3.6801431,0 -6.6428566,2.962713 -6.6428566,6.6428549 V 87.857171 c 0,3.680142 2.9627135,6.642856 6.6428566,6.642856 H 87.857137 c 3.680143,0 6.642854,-2.962714 6.642854,-6.642856 V 8.1428809 c 0,-3.6801419 -2.962711,-6.6428549 -6.642854,-6.6428549 z"
     id="rect4251-1-8"
     inkscape:connector-curvature="0" />
  <path
     style="display:inline;opacity:0.95999995;fill:#9ea5b3;fill-opacity:1;fill-rule:nonzero;stroke:none;stroke-width:1.02950251"
     d="m 11.241291,6.3871682 c -2.8564968,0 -5.1241288,2.2883782 -5.1241288,5.1710028 v 21.42734 7.239403 39.913674 c 1.0972399,1.684484 2.9688485,2.811732 5.1241288,2.811732 h 4.099303 65.588849 4.099302 c 2.155281,0 4.026889,-1.127248 5.124129,-2.811732 V 40.224914 32.985511 11.558171 c 0,-2.8826246 -2.267632,-5.1710028 -5.124129,-5.1710028 z"
     id="path3400-6-9"
     inkscape:connector-curvature="0"
     sodipodi:nodetypes="sscccsccscccsss" />
  <path
     inkscape:connector-curvature="0"
     id="path4989-7"
     d="m 9.8250777,4.7294869 c -3.116621,0 -5.667965,2.53951 -5.667965,5.6460041 v 69.277996 c 0,3.106495 2.551344,5.646004 5.667965,5.646004 H 86.616863 c 3.116621,0 5.667968,-2.539509 5.667968,-5.646004 V 10.375491 c 0,-3.1064931 -2.551347,-5.6460041 -5.667968,-5.6460041 z m 0,2.319439 H 86.616863 c 1.888099,0 3.352022,1.480095 3.352022,3.3265651 v 69.277996 c 0,1.846474 -1.463923,3.326564 -3.352022,3.326564 H 9.8250777 c -1.888099,0 -3.352022,-1.48009 -3.352022,-3.326564 V 10.375491 c 0,-1.8464701 1.463923,-3.3265651 3.352022,-3.3265651 z"
     style="color:#000000;font-style:normal;font-variant:normal;font-weight:normal;font-stretch:normal;font-size:medium;line-height:normal;font-family:Sans;-inkscape-font-specification:Sans;text-indent:0;text-align:start;text-decoration:none;text-decoration-line:none;letter-spacing:normal;word-spacing:normal;text-transform:none;writing-mode:lr-tb;direction:ltr;baseline-shift:baseline;text-anchor:start;display:inline;overflow:visible;visibility:visible;fill:#202223;fill-opacity:0.93689324;stroke:none;stroke-width:2.3755002;marker:none;enable-background:accumulate" />
  <path
     inkscape:connector-curvature="0"
     style="display:inline;opacity:0.65818182;fill:url(#linearGradient4129-2);fill-opacity:1;fill-rule:nonzero;stroke:none"
     d="m 1.499997,81.843776 v 6 c 0,3.680142 2.9761066,6.65625 6.6562497,6.65625 H 87.843747 c 3.680143,0 6.656254,-2.976108 6.656254,-6.65625 v -6 c 0,3.680142 -2.976111,6.65625 -6.656254,6.65625 H 8.1562467 c -3.6801431,0 -6.6562496,-2.976108 -6.6562497,-6.65625 z"
     id="path4118-3" />
  <rect
     style="opacity:0.55;fill:url(#radialGradient7462-0);fill-opacity:1;stroke:none"
     id="rect4131-6"
     width="84.250008"
     height="4.25"
     x="5.3749976"
     y="80.250031"
     rx="0"
     ry="4.25" />
  <rect
     ry="4.25"
     rx="0"
     y="-90.085007"
     x="5.5600224"
     height="4.25"
     width="76.75"
     id="rect4141-1"
     style="opacity:0.669;fill:url(#radialGradient7464-6);fill-opacity:1;stroke:none"
     transform="rotate(90)" />
  <g
     id="g3043"
     inkscape:export-filename="folder.png"
     inkscape:export-xdpi="90"
     inkscape:export-ydpi="90"
     transform="translate(-0.62500009,0.082283)" />
  <g
     id="scalable"
     transform="matrix(1.0385892,0,0,1.0385892,1214.7222,1878.8121)"
     inkscape:label="#g3701"
     style="fill:#ffffff" />
  <g
     id="g1008"
     transform="translate(5.1071455,2.8110855)">
    <path
       sodipodi:nodetypes="ccccccccccccc"
       inkscape:connector-curvature="0"
       id="path3870"
       style="font-style:normal;font-variant:normal;font-weight:bold;font-stretch:normal;font-size:50.42954254px;line-height:125%;font-family:'Open Sans';-inkscape-font-specification:'Open Sans Bold';letter-spacing:0px;word-spacing:0px;fill:#000000;fill-opacity:0.19642857;stroke:none;stroke-width:1.43756747"
       d="M 67.181056,75.377829 H 28.667625 L 18.604653,66.752424 43.062621,32.687389 H 29.340194 L 19.277222,24.061984 56.445515,15 66.508487,25.062972 v 7.079675 L 46.472168,60.937701 57.118084,57.69044 67.181056,67.753412 v 7.624417" />
    <path
       d="M 57.118084,66.752424 H 18.604653 V 59.63735 L 43.418914,24.061984 H 19.277222 V 15 h 37.168293 v 7.079675 L 31.666653,57.69044 h 25.451431 v 9.061984"
       style="font-style:normal;font-variant:normal;font-weight:bold;font-stretch:normal;font-size:50.42954254px;line-height:125%;font-family:'Open Sans';-inkscape-font-specification:'Open Sans Bold';letter-spacing:0px;word-spacing:0px;fill:#da4829;fill-opacity:1;stroke:none;stroke-width:1.43756747"
       id="path3872"
       inkscape:connector-curvature="0" />
  </g>
  <rect
     transform="matrix(1.0692451,0,0,1.0476829,4.2952237,38.479013)"
     style="opacity:0.65;fill:url(#linearGradient1004);fill-opacity:1;stroke:none"
     id="rect4146-2"
     width="75.965775"
     height="69.024437"
     x="2"
     y="-30"
     rx="3.9569874"
     ry="3.9569881"
     clip-path="url(#clipPath4156-4-1-0)" />
</svg>

<?xml version="1.0" encoding="UTF-8"?>
<!-- Created with Inkscape (http://www.inkscape.org/) -->
<svg version="1.1" viewBox="0 0 96 96" xmlns="http://www.w3.org/2000/svg" xmlns:cc="http://creativecommons.org/ns#" xmlns:dc="http://purl.org/dc/elements/1.1/" xmlns:rdf="http://www.w3.org/1999/02/22-rdf-syntax-ns#" xmlns:xlink="http://www.w3.org/1999/xlink">
<defs>
<linearGradient id="linearGradient3737">
<stop stop-color="#fff" offset="0"/>
<stop stop-color="#fff" stop-opacity="0" offset="1"/>
</linearGradient>
<linearGradient id="linearGradient4071-6" x1="6" x2="90" y1="47" y2="47" gradientTransform="matrix(1.1071 0 0 1.1071 -5.1429 -4.0357)" gradientUnits="userSpaceOnUse">
<stop stop-color="#b2babc" offset="0"/>
<stop stop-color="#fff" offset=".25"/>
<stop stop-color="#96a1a4" offset=".5"/>
<stop stop-color="#fbf9f9" offset=".75"/>
<stop stop-color="#b2b9bc" offset="1"/>
</linearGradient>
<linearGradient id="linearGradient4129-2" x1="1.5" x2="94.5" y1="88.172" y2="88.172" gradientTransform="translate(-2.95e-6,2.6e-5)" gradientUnits="userSpaceOnUse">
<stop offset="0"/>
<stop stop-opacity=".58824" offset=".1"/>
<stop stop-opacity=".58824" offset=".9"/>
<stop offset="1"/>
</linearGradient>
<radialGradient id="radialGradient7462-0" cx="13.948" cy="44.893" r="43.199" gradientTransform="matrix(.97513 0 0 .049191 33.899 80.167)" gradientUnits="userSpaceOnUse" xlink:href="#linearGradient3737"/>
<radialGradient id="radialGradient7464-6" cx="13.948" cy="44.893" r="43.199" gradientTransform="matrix(.88833 0 0 .049191 31.545 -90.168)" gradientUnits="userSpaceOnUse" xlink:href="#linearGradient3737"/>
<clipPath id="clipPath4156-4-1-0">
<path d="m27.046-55.695-14.214 13.321h0.06127l15.653 21.771 10.231-10.546c-0.2169-1.1522-11.311-23.67-11.732-24.546zm-17.399 16.313-14.888 14.062 21.229 17.515 10.385-10.577zm31.491 12.951-9.7413 9.7136 8.9448 12.458 7.7808-7.555zm-49.84 4.3788-13.754 12.982 26.283 13.846 0.06127-0.0617-0.12253-0.0617 9.8332-10.053-22.301-16.652zm38.015 7.4008-9.8025 9.7753 11.579 9.5594 7.6276-7.4008-8.6691-11.009zm20.187 5.674-7.3825 7.2158 6.1878 8.5418 5.8202-6.1365zm-32.195 6.3215-9.5575 9.4977 13.662 7.185 7.9339-7.6784zm23.312 2.3744-7.1068 6.9383 8.3628 6.9074 5.3608-5.674-0.06127-0.0925-0.0919 0.12335-6.4635-8.2026zm-8.7304 8.5418-7.5051 7.3392 10.354 5.4581c1.3975-1.321 5.6751-6.1229 5.8509-6.3215z" fill="#fff" opacity=".6"/>
</clipPath>
<linearGradient id="linearGradient1004" x1="2.7714" x2="50.528" y1="-28.642" y2="14.514" gradientUnits="userSpaceOnUse" xlink:href="#linearGradient3737"/>
</defs>
<metadata>
<rdf:RDF>
<cc:Work rdf:about="">
<dc:format>image/svg+xml</dc:format>
<dc:type rdf:resource="http://purl.org/dc/dcmitype/StillImage"/>
<dc:title/>
</cc:Work>
</rdf:RDF>
</metadata>
<path d="m89.143 2.6e-5h-82.286c-3.7988 0-6.8571 3.0583-6.8571 6.8571v82.286c0 3.7989 3.0583 6.8571 6.8571 6.8571h82.286c3.7989 0 6.8571-3.0583 6.8571-6.8571v-82.286c0-3.7989-3.0583-6.8571-6.8571-6.8571z" opacity=".15"/>
<path d="m88.5 0.75003h-81c-3.7395 0-6.75 3.0105-6.75 6.75v81c0 3.7395 3.0105 6.75 6.75 6.75h81c3.7395 0 6.75-3.0105 6.75-6.75v-81c0-3.7395-3.0105-6.75-6.75-6.75z" opacity=".15"/>
<path d="m87.857 1.5h-79.714c-3.6801 0-6.6429 2.9627-6.6429 6.6429v79.714c0 3.6801 2.9627 6.6429 6.6429 6.6429h79.714c3.6801 0 6.6429-2.9627 6.6429-6.6429v-79.714c0-3.6801-2.9627-6.6429-6.6429-6.6429z" fill="url(#linearGradient4071-6)"/>
<path d="m11.241 6.3872c-2.8565 0-5.1241 2.2884-5.1241 5.171v68.58c1.0972 1.6845 2.9688 2.8117 5.1241 2.8117h73.787c2.1553 0 4.0269-1.1272 5.1241-2.8117v-68.58c0-2.8826-2.2676-5.171-5.1241-5.171z" fill="#9ea5b3" opacity=".96"/>
<path d="m9.8251 4.7295c-3.1166 0-5.668 2.5395-5.668 5.646v69.278c0 3.1065 2.5513 5.646 5.668 5.646h76.792c3.1166 0 5.668-2.5395 5.668-5.646v-69.278c0-3.1065-2.5513-5.646-5.668-5.646zm0 2.3194h76.792c1.8881 0 3.352 1.4801 3.352 3.3266v69.278c0 1.8465-1.4639 3.3266-3.352 3.3266h-76.792c-1.8881 0-3.352-1.4801-3.352-3.3266v-69.278c0-1.8465 1.4639-3.3266 3.352-3.3266z" color="#000000" fill="#202223" fill-opacity=".93689" style="text-decoration-line:none;text-indent:0;text-transform:none"/>
<path d="m1.5 81.844v6c0 3.6801 2.9761 6.6562 6.6562 6.6562h79.688c3.6801 0 6.6563-2.9761 6.6563-6.6562v-6c0 3.6801-2.9761 6.6562-6.6563 6.6562h-79.688c-3.6801 0-6.6562-2.9761-6.6562-6.6562z" fill="url(#linearGradient4129-2)" opacity=".65818"/>
<rect x="5.375" y="80.25" width="84.25" height="4.25" rx="0" ry="4.25" fill="url(#radialGradient7462-0)" opacity=".55"/>
<rect transform="rotate(90)" x="5.56" y="-90.085" width="76.75" height="4.25" rx="0" ry="4.25" fill="url(#radialGradient7464-6)" opacity=".669"/>
<g transform="translate(5.1071 2.8111)">
<path d="m67.181 75.378h-38.513l-10.063-8.6254 24.458-34.065h-13.722l-10.063-8.6254 37.168-9.062 10.063 10.063v7.0797l-20.036 28.795 10.646-3.2473 10.063 10.063v7.6244" fill-opacity=".19643"/>
<path d="m57.118 66.752h-38.513v-7.1151l24.814-35.575h-24.142v-9.062h37.168v7.0797l-24.779 35.611h25.451v9.062" fill="#da4829"/>
</g>
<rect transform="matrix(1.0692 0 0 1.0477 4.2952 38.479)" x="2" y="-30" width="75.966" height="69.024" rx="3.957" ry="3.957" clip-path="url(#clipPath4156-4-1-0)" fill="url(#linearGradient1004)" opacity=".65"/>
</svg>
